styles/2/Numix/256/places/default-folder-publicshare.svg

<?xml version="1.0" encoding="UTF-8" standalone="no"?>
<svg
   xmlns:dc="http://purl.org/dc/elements/1.1/"
   xmlns:cc="http://creativecommons.org/ns#"
   xmlns:rdf="http://www.w3.org/1999/02/22-rdf-syntax-ns#"
   xmlns:svg="http://www.w3.org/2000/svg"
   xmlns="http://www.w3.org/2000/svg"
   xmlns:sodipodi="http://sodipodi.sourceforge.net/DTD/sodipodi-0.dtd"
   xmlns:inkscape="http://www.inkscape.org/namespaces/inkscape"
   width="256px"
   height="256px"
   viewBox="0 0 256 256"
   version="1.1"
   id="svg5595"
   inkscape:version="0.91 r"
   sodipodi:docname="default-folder-publicshare.svg">
  <metadata
     id="metadata5608">
    <rdf:RDF>
      <cc:Work
         rdf:about="">
        <dc:format>image/svg+xml</dc:format>
        <dc:type
           rdf:resource="http://purl.org/dc/dcmitype/StillImage" />
      </cc:Work>
    </rdf:RDF>
  </metadata>
  <defs
     id="defs5606" />
  <sodipodi:namedview
     pagecolor="#ffffff"
     bordercolor="#666666"
     borderopacity="1"
     objecttolerance="10"
     gridtolerance="10"
     guidetolerance="10"
     inkscape:pageopacity="0"
     inkscape:pageshadow="2"
     inkscape:window-width="640"
     inkscape:window-height="480"
     id="namedview5604" />
  <g
     id="surface1">
    <path
       style=" stroke:none;fill-rule:nonzero;fill:rgb(91.372549%,69.019608%,50.196078%);fill-opacity:1;"
       d="M 36 32 C 30.140625 32 24 38.046875 24 44 L 24 48 L 12 48 C 6.117188 48 0 53.984375 0 60 L 0 212 C 0 220 4 224 12 224 L 244 224 C 250.273438 224 256 218.570312 256 212 L 256 80 C 256 73.976562 250.179688 68 244 68 L 232 68 L 232 44 C 232 38.15625 226.1875 32 220 32 Z M 36 32 "
       id="path5598" />
    <path
       style=" stroke:none;fill-rule:nonzero;fill:rgb(0%,0%,0%);fill-opacity:0.321569;"
       d="M 36 32 C 30.140625 32 24 38.046875 24 44 L 24 48 L 12 48 C 6.117188 48 0 53.984375 0 60 L 0 212 C 0 220 4 224 12 224 L 244 224 C 250.273438 224 256 218.570312 256 212 L 256 80 C 256 73.976562 250.179688 68 244 68 L 232 68 L 232 44 C 232 38.15625 226.1875 32 220 32 Z M 12 56 L 148 56 C 150.359375 56 152 58.0625 152 60 L 152 76 L 244 76 C 246.023438 76 248 78.03125 248 80 L 248 212 C 248 214.085938 246.085938 216 244 216 L 12 216 C 10.140625 216 8 214.414062 8 212 L 8 60 C 8 58.03125 10.0625 56 12 56 Z M 12 56 "
       id="path5600" />
    <path
       style=" stroke:none;fill-rule:nonzero;fill:rgb(0%,0%,0%);fill-opacity:0.321569;"
       d="M 143.429688 96 C 132.195312 96 122.929688 104.757812 122.929688 115.710938 C 123.015625 119.46875 123.21875 124.234375 125.351562 134.289062 L 125.578125 134.289062 C 126.007812 135.625 126.671875 136.945312 127.78125 138.367188 C 128.773438 139.648438 130.09375 141.101562 131.304688 142.445312 C 131.679688 145.289062 131.742188 147.773438 131.304688 150.835938 C 127.96875 153.4375 121.953125 155.867188 116.539062 158.085938 C 113.710938 159.242188 111.101562 160.304688 109.039062 161.710938 C 107.070312 163.046875 105.648438 164.859375 105.515625 167.148438 C 105.507812 167.257812 105.289062 167.265625 105.289062 167.367188 L 102.867188 186.632812 L 102.867188 186.859375 C 102.867188 189.242188 104.414062 191.195312 106.617188 192.75 C 108.8125 194.304688 111.804688 195.515625 115.429688 196.601562 C 122.695312 198.765625 132.546875 200 143.429688 200 C 154.320312 200 164.171875 198.765625 171.429688 196.601562 C 175.0625 195.515625 178.054688 194.304688 180.25 192.75 C 182.453125 191.195312 184 189.242188 184 186.859375 L 184 186.632812 L 181.351562 167.367188 C 181.351562 167.296875 181.359375 167.21875 181.351562 167.148438 C 181.289062 166.054688 180.90625 164.984375 180.25 164.203125 C 179.554688 163.359375 178.632812 162.820312 177.609375 162.164062 C 175.554688 160.84375 172.9375 159.734375 170.109375 158.539062 C 164.625 156.210938 158.617188 153.585938 155.335938 150.835938 C 155.09375 148.203125 155.078125 145.53125 155.335938 142.898438 C 156.523438 141.460938 157.851562 139.976562 158.867188 138.59375 C 159.992188 137.054688 160.84375 135.664062 161.289062 134.289062 C 163.703125 123.820312 163.8125 119.546875 163.9375 115.710938 C 163.9375 104.757812 154.664062 96 143.429688 96 Z M 105.289062 99.625 C 96.0625 99.625 88.539062 106.945312 88.539062 115.9375 C 88.601562 119.023438 88.765625 122.640625 90.523438 130.890625 L 90.523438 131.125 C 90.875 132.226562 91.578125 133.109375 92.507812 134.296875 C 93.3125 135.328125 94.390625 136.609375 95.367188 137.695312 C 95.664062 139.96875 95.703125 142.273438 95.367188 144.71875 C 92.648438 146.867188 87.710938 148.796875 83.242188 150.609375 C 80.929688 151.546875 78.976562 152.40625 77.289062 153.554688 C 75.695312 154.632812 74.5625 156.242188 74.421875 158.085938 C 74.414062 158.195312 74.203125 158.203125 74.203125 158.3125 L 72 173.945312 L 72 174.171875 C 72 175.640625 72.6875 176.914062 73.765625 178.023438 C 74.84375 179.132812 76.34375 180.148438 78.171875 180.96875 C 81.789062 182.585938 86.9375 183.703125 93.164062 184.367188 L 93.382812 184.367188 C 93.726562 184.367188 94.0625 184.273438 94.265625 184.140625 C 94.523438 183.96875 94.820312 183.84375 94.929688 183.6875 C 95.148438 183.375 95.273438 183.0625 95.367188 182.78125 C 95.53125 182.289062 95.570312 181.703125 95.59375 181.195312 C 95.59375 181.125 95.59375 181.046875 95.59375 180.976562 L 98.015625 161.710938 C 98.015625 160.929688 98.546875 159.976562 99.78125 158.992188 C 101.015625 158.007812 102.890625 157.023438 105.070312 156.046875 C 109.4375 154.101562 114.976562 152.296875 119.398438 149.929688 L 121.828125 148.570312 L 119.398438 147.4375 C 117.648438 146.5625 116.3125 145.609375 115.210938 144.71875 C 115 142.484375 114.984375 140.15625 115.210938 137.921875 C 115.21875 137.851562 115.203125 137.773438 115.210938 137.695312 C 116.890625 135.375 118.171875 132.960938 118.742188 131.578125 L 118.960938 131.132812 L 118.742188 130.679688 C 118.546875 129.554688 118.609375 128.703125 118.296875 127.734375 C 116.1875 117.796875 115.953125 113.695312 115.875 110.0625 C 115.875 108.53125 116.226562 106.757812 116.757812 105.078125 L 117.195312 104.171875 L 116.3125 103.726562 C 113.367188 101.304688 109.476562 99.640625 105.289062 99.640625 Z M 105.289062 99.625 "
       id="path5602" />
  </g>
</svg>

<svg xmlns="http://www.w3.org/2000/svg" viewBox="0 0 256 256">
 <g>
  <path d="m 36 32 c -5.859 0 -12 6.05 -12 12 l 0 4 l -12 0 c -5.883 0 -12 5.984 -12 12 l 0 152 c 0 8 4 12 12 12 l 232 0 c 6.273 0 12 -5.43 12 -12 l 0 -132 c 0 -6.02 -5.82 -12 -12 -12 l -12 0 l 0 -24 c 0 -5.844 -5.813 -12 -12 -12 m -184 0" style="fill:#e8b07f;fill-opacity:1;stroke:none;fill-rule:nonzero"/>
  <path d="m 36 32 c -5.859 0 -12 6.05 -12 12 l 0 4 l -12 0 c -5.883 0 -12 5.984 -12 12 l 0 152 c 0 8 4 12 12 12 l 232 0 c 6.273 0 12 -5.43 12 -12 l 0 -132 c 0 -6.02 -5.82 -12 -12 -12 l -12 0 l 0 -24 c 0 -5.844 -5.813 -12 -12 -12 m -208 24 l 136 0 c 2.359 0 4 2.063 4 4 l 0 16 l 92 0 c 2.023 0 4 2.031 4 4 l 0 132 c 0 2.086 -1.914 4 -4 4 l -232 0 c -1.859 0 -4 -1.586 -4 -4 l 0 -152 c 0 -1.969 2.063 -4 4 -4 m 0 0" style="fill:#000;fill-opacity:0.322;stroke:none;fill-rule:nonzero"/>
  <path d="m 143.43 96 c -11.234 0 -20.5 8.758 -20.5 19.711 c 0.086 3.758 0.289 8.523 2.422 18.578 l 0.227 0 c 0.43 1.336 1.094 2.656 2.203 4.078 c 0.992 1.281 2.313 2.734 3.523 4.078 c 0.375 2.844 0.438 5.328 0 8.391 c -3.336 2.602 -9.352 5.03 -14.766 7.25 c -2.828 1.156 -5.438 2.219 -7.5 3.625 c -1.969 1.336 -3.391 3.148 -3.523 5.438 c -0.008 0.109 -0.227 0.117 -0.227 0.219 l -2.422 19.266 l 0 0.227 c 0 2.383 1.547 4.336 3.75 5.891 c 2.195 1.555 5.188 2.766 8.813 3.852 c 7.266 2.164 17.12 3.398 28 3.398 c 10.891 0 20.742 -1.234 28 -3.398 c 3.633 -1.086 6.625 -2.297 8.82 -3.852 c 2.203 -1.555 3.75 -3.508 3.75 -5.891 l 0 -0.227 l -2.648 -19.266 c 0 -0.07 0.008 -0.148 0 -0.219 c -0.063 -1.094 -0.445 -2.164 -1.102 -2.945 c -0.695 -0.844 -1.617 -1.383 -2.641 -2.039 c -2.055 -1.32 -4.672 -2.43 -7.5 -3.625 c -5.484 -2.328 -11.492 -4.953 -14.773 -7.703 c -0.242 -2.633 -0.258 -5.305 0 -7.938 c 1.188 -1.438 2.516 -2.922 3.531 -4.305 c 1.125 -1.539 1.977 -2.93 2.422 -4.305 c 2.414 -10.469 2.523 -14.742 2.648 -18.578 c 0 -10.953 -9.273 -19.711 -20.508 -19.711 m -38.14 3.625 c -9.227 0 -16.75 7.32 -16.75 16.313 c 0.063 3.086 0.227 6.703 1.984 14.953 l 0 0.234 c 0.352 1.102 1.055 1.984 1.984 3.172 c 0.805 1.031 1.883 2.313 2.859 3.398 c 0.297 2.273 0.336 4.578 0 7.02 c -2.719 2.148 -7.656 4.078 -12.12 5.891 c -2.313 0.938 -4.266 1.797 -5.953 2.945 c -1.594 1.078 -2.727 2.688 -2.867 4.531 c -0.008 0.109 -0.219 0.117 -0.219 0.227 l -2.203 15.633 l 0 0.227 c 0 1.469 0.688 2.742 1.766 3.852 c 1.078 1.109 2.578 2.125 4.406 2.945 c 3.617 1.617 8.766 2.734 14.992 3.398 l 0.219 0 c 0.344 0 0.68 -0.094 0.883 -0.227 c 0.258 -0.172 0.555 -0.297 0.664 -0.453 c 0.219 -0.313 0.344 -0.625 0.438 -0.906 c 0.164 -0.492 0.203 -1.078 0.227 -1.586 c 0 -0.07 0 -0.148 0 -0.219 l 2.422 -19.266 c 0 -0.781 0.531 -1.734 1.766 -2.719 c 1.234 -0.984 3.109 -1.969 5.289 -2.945 c 4.367 -1.945 9.906 -3.75 14.328 -6.117 l 2.43 -1.359 l -2.43 -1.133 c -1.75 -0.875 -3.086 -1.828 -4.188 -2.719 c -0.211 -2.234 -0.227 -4.563 0 -6.797 c 0.008 -0.07 -0.008 -0.148 0 -0.227 c 1.68 -2.32 2.961 -4.734 3.531 -6.117 l 0.219 -0.445 l -0.219 -0.453 c -0.195 -1.125 -0.133 -1.977 -0.445 -2.945 c -2.109 -9.938 -2.344 -14.04 -2.422 -17.672 c 0 -1.531 0.352 -3.305 0.883 -4.984 l 0.438 -0.906 l -0.883 -0.445 c -2.945 -2.422 -6.836 -4.086 -11.02 -4.086 m 0 -0.016" style="fill:#000;fill-opacity:0.322;stroke:none;fill-rule:nonzero"/>
 </g>
</svg>
